packages/console/src/assets/images/check-box-unselected-disabled-dark.svg

<svg
    width="20"
    height="20"
    viewBox="0 0 20 20"
    fill="none"
    xmlns="http://www.w3.org/2000/svg"
    
  >
    <path
      d="M1.66602 4.75305C1.66602 3.04847 3.04785 1.66663 4.75244 1.66663H15.2463C16.9508 1.66663 18.3327 3.04846 18.3327 4.75305V15.2469C18.3327 16.9515 16.9508 18.3333 15.2463 18.3333H4.75244C3.04786 18.3333 1.66602 16.9515 1.66602 15.2469V4.75305Z"
      fill="#191C1D"
    />
    <path
      d="M1.66602 4.75305C1.66602 3.04847 3.04785 1.66663 4.75244 1.66663H15.2463C16.9508 1.66663 18.3327 3.04846 18.3327 4.75305V15.2469C18.3327 16.9515 16.9508 18.3333 15.2463 18.3333H4.75244C3.04786 18.3333 1.66602 16.9515 1.66602 15.2469V4.75305Z"
      fill="#C4C7C7"
      fillOpacity="0.02"
    />
    <path
      d="M1.66602 4.75305C1.66602 3.04847 3.04785 1.66663 4.75244 1.66663H15.2463C16.9508 1.66663 18.3327 3.04846 18.3327 4.75305V15.2469C18.3327 16.9515 16.9508 18.3333 15.2463 18.3333H4.75244C3.04786 18.3333 1.66602 16.9515 1.66602 15.2469V4.75305Z"
      fill="#CABEFF"
      fillOpacity="0.14"
    />
    <path
      fillRule="evenodd"
      clipRule="evenodd"
      d="M15.2463 3.20984H4.75244C3.90015 3.20984 3.20923 3.90076 3.20923 4.75305V15.2469C3.20923 16.0992 3.90015 16.7901 4.75244 16.7901H15.2463C16.0986 16.7901 16.7895 16.0992 16.7895 15.2469V4.75305C16.7895 3.90076 16.0986 3.20984 15.2463 3.20984ZM4.75244 1.66663C3.04785 1.66663 1.66602 3.04847 1.66602 4.75305V15.2469C1.66602 16.9515 3.04786 18.3333 4.75244 18.3333H15.2463C16.9508 18.3333 18.3327 16.9515 18.3327 15.2469V4.75305C18.3327 3.04846 16.9508 1.66663 15.2463 1.66663H4.75244Z"
      fill="#5C5F60"
    />
  </svg>

<svg width="20" height="20" viewBox="0 0 20 20" fill="none" xmlns="http://www.w3.org/2000/svg"><path d="M1.666 4.753a3.086 3.086 0 0 1 3.086-3.086h10.494a3.086 3.086 0 0 1 3.087 3.086v10.494a3.086 3.086 0 0 1-3.087 3.086H4.752a3.086 3.086 0 0 1-3.086-3.086V4.753Z" fill="#191C1D"/><path d="M1.666 4.753a3.086 3.086 0 0 1 3.086-3.086h10.494a3.086 3.086 0 0 1 3.087 3.086v10.494a3.086 3.086 0 0 1-3.087 3.086H4.752a3.086 3.086 0 0 1-3.086-3.086V4.753Z" fill="#C4C7C7"/><path d="M1.666 4.753a3.086 3.086 0 0 1 3.086-3.086h10.494a3.086 3.086 0 0 1 3.087 3.086v10.494a3.086 3.086 0 0 1-3.087 3.086H4.752a3.086 3.086 0 0 1-3.086-3.086V4.753Z" fill="#CABEFF"/><path d="M15.246 3.21H4.752c-.852 0-1.543.69-1.543 1.543v10.494c0 .852.691 1.543 1.543 1.543h10.494c.853 0 1.543-.69 1.543-1.543V4.753c0-.852-.69-1.543-1.543-1.543ZM4.752 1.667a3.086 3.086 0 0 0-3.086 3.086v10.494a3.086 3.086 0 0 0 3.086 3.086h10.494a3.086 3.086 0 0 0 3.087-3.086V4.753a3.086 3.086 0 0 0-3.087-3.086H4.752Z" fill="#5C5F60"/></svg>
